X:1749
T:Väntanpolska, mellanspel
R:Polska
C:Anton Teljebäck
Z:Anton Teljebäck
M:3/4
L:1/4
K:Dm
| a3 | a3 | b3 | b2a | g3 | g2f | (f(3f)gf | e3 |
| a3 | a3 | b3 | b3 | c'3 | b2a | aba | f2d ||

(:musicend:)




(:music:)
